X:1
T:The Two Sisters
M:6/8
L:1/8
K:F
 C| D3/2 D/2 F G2 F| G2 A/2A/2 B3| G2- F D2 C| D3/2 D/2 F G2 F| G2 A/2A/2 B2 f|\
 d2 d B2 c|
M:9/8
 d3- d2 z d3|
M:6/8
 fdd d2 c| B2 c/2c/2 d2 c|B-A B| G2 B|A-G F D2 C| D2 F G2 F|
M:9/8
 G3 d3 B3/2- c/2 d|
M:6/8
 cBA G2 F| G3- G2||
